assets/icons/ability-3.svg

<svg fill="none" height="160" viewBox="0 0 160 160" width="160" xmlns="http://www.w3.org/2000/svg" xmlns:xlink="http://www.w3.org/1999/xlink"><linearGradient id="a" gradientUnits="userSpaceOnUse" x1="16.0271" x2="82.1728" y1="-.026276" y2="154.393"><stop offset="0" stop-color="#d3dff2"/><stop offset=".172" stop-color="#d3dff2"/><stop offset=".2" stop-color="#dae2f2"/><stop offset=".201" stop-color="#f6eff2"/><stop offset=".202" stop-color="#fdf2f2"/><stop offset=".205" stop-color="#fff"/><stop offset=".2519" stop-color="#fff"/><stop offset=".252" stop-color="#fff3f2"/><stop offset=".26" stop-color="#d3dff2"/><stop offset=".397" stop-color="#d3dff2"/><stop offset=".42" stop-color="#dae2f2"/><stop offset=".421" stop-color="#f6eff2"/><stop offset=".422" stop-color="#fdf2f2"/><stop offset=".425" stop-color="#fff"/><stop offset=".46875" stop-color="#fff"/><stop offset=".489" stop-color="#fff"/><stop offset=".5" stop-color="#d5e0f2"/><stop offset=".501" stop-color="#d3dff2"/><stop offset=".706" stop-color="#d3dff2"/><stop offset=".74" stop-color="#d3dff2"/><stop offset=".741" stop-color="#fff"/><stop offset=".835" stop-color="#fff"/><stop offset=".85" stop-color="#fff"/><stop offset=".851" stop-color="#d3dff2"/></linearGradient><path d="m157.333 8.00049v5.33321h-154.66576v-5.33321c.00854-2.9419 2.39135-5.32471 5.33325-5.33325h143.99951c2.941.00854 5.324 2.39135 5.333 5.33325z" fill="#a4c2f7"/><path d="m149.333 8.00049v5.33321h-146.66576v-5.33321c.00854-2.9419 2.39135-5.32471 5.33325-5.33325h135.99951c2.942.00854 5.325 2.39135 5.333 5.33325z" fill="#e3e7f2"/><path d="m149.333 13.3337h-146.66576v101.2273h154.66576v-101.2273z" fill="url(#a)"/><path d="m157.333 114.561v10.772c-.009 2.942-2.392 5.325-5.333 5.334h-143.99951c-2.9419-.009-5.32471-2.392-5.33325-5.334v-10.772z" fill="#a4c2f7"/><path d="m149.333 114.561v10.772c-.008 2.942-2.391 5.325-5.333 5.334h-135.99951c-2.9419-.009-5.32471-2.392-5.33325-5.334v-10.772z" fill="#e3e7f2"/><path d="m114.667 157.333h-69.3337v-5.248c0-2.963 2.4023-5.365 5.3649-5.365h58.6348c2.946 0 5.334 2.388 5.334 5.333z" fill="#e3e7f2"/><path d="m93.3337 130.667h-29.3335v2.152c0 3.813-1.1279 7.541-3.2434 10.715l-2.0898 3.132h42.666l-2.3437-2.343c-3.6219-3.622-5.6556-8.534-5.6556-13.656z" fill="#a4c2f7"/><path d="m152 160h-18.666c-1.474 0-2.667-1.194-2.667-2.667v-1.333c0-6.627 5.372-12 12-12 6.627 0 12 5.373 12 12v1.333c0 1.473-1.194 2.667-2.667 2.667z" fill="#a4c2f7"/><path d="m8.00049 130.667h7.99931c-2.9419-.009-5.3248-2.392-5.3333-5.334v-117.33251c.0085-2.9419 2.3914-5.32471 5.3333-5.33325h-7.99931c-2.9419.00854-5.32471 2.39135-5.33325 5.33325v117.33251c.00854 2.942 2.39135 5.325 5.33325 5.334z" fill="#fff"/><path d="m60.7568 143.534-2.0898 3.132h7.9993l2.091-3.132c2.1143-3.174 3.2434-6.902 3.2422-10.715v-2.152h-7.9993v2.152c0 3.813-1.1279 7.541-3.2434 10.715z" fill="#fff"/><path d="m45.3333 152.085v5.248h8.0004v-5.248c0-2.963 2.4024-5.365 5.365-5.365h-8.0005c-2.9626 0-5.3649 2.402-5.3649 5.365z" fill="#fff"/><path d="m152 133.334h-143.99951c-4.41895 0-8.00049-3.582-8.00049-8.001v-10.772c0-1.474 1.19385-2.668 2.66724-2.668h154.66576c1.473 0 2.667 1.194 2.667 2.668v10.772c0 4.419-3.582 8.001-8 8.001zm-146.66675-16.107v8.106c0 1.474 1.19385 2.667 2.66724 2.667h143.99951c1.473 0 2.667-1.193 2.667-2.667v-8.106z" fill="#428dff"/><path d="m114.667 160h-69.3337c-1.4722 0-2.6661-1.194-2.6661-2.667v-5.248c.0037-4.434 3.5974-8.027 8.031-8.032h58.6348c4.415.009 7.991 3.586 8 8v5.28c0 1.473-1.194 2.667-2.666 2.667zm-66.6665-5.333h63.9995v-2.609c0-1.472-1.194-2.666-2.667-2.666h-58.6348c-1.4868.001-2.694 1.206-2.6977 2.693z" fill="#428dff"/><path d="m5.33325 8.00049v106.56051h-5.33325v-106.56051z" fill="#fff"/><g fill="#428dff"><path d="m2.66724 21.333c1.47216 0 2.66601-1.1938 2.66601-2.666v-10.66651h-5.33325v10.66651c0 1.4722 1.19385 2.666 2.66724 2.666z"/><path d="m0 114.561h5.33325v-74.561c0-1.4722-1.19385-2.6672-2.66601-2.6672-1.47339 0-2.66724 1.195-2.66724 2.6672z"/><path d="m5.33325 29.3335c-.00976-.7056-.28686-1.3818-.7727-1.8933l-.40039-.3198c-.14893-.1014-.31006-.1819-.47974-.2405-.15137-.0769-.31372-.1306-.48096-.1599-.17578-.0293-.354-.0476-.53222-.0537-.70679.0109-1.38306.2868-1.893312.7739-.2417.2551-.432129.553-.560303.8801-.402832.9949-.1831055 2.1326.560303 2.9065.253902.2405.552982.4309.878902.5603.32105.1367.66529.2087 1.01441.2124.70556-.0098 1.38183-.2856 1.89331-.7727.48584-.5115.76294-1.1877.7727-1.8933z"/><path d="m157.333 117.227h-154.66576c-1.47339 0-2.66724-1.194-2.66724-2.666 0-1.474 1.19385-2.668 2.66724-2.668h151.99976v-103.89251c0-1.47339-1.194-2.66724-2.667-2.66724h-143.99951c-1.47339 0-2.66724 1.19385-2.66724 2.66724 0 1.47217-1.19385 2.66601-2.66601 2.66601-1.47339 0-2.66724-1.19384-2.66724-2.66601 0-4.41895 3.58154-8.00049 8.00049-8.00049h143.99951c4.418 0 8 3.58154 8 8.00049v106.56051c0 1.472-1.194 2.666-2.667 2.666z"/><path d="m101.333 149.333h-42.666c-.9839 0-1.8884-.541-2.3523-1.408-.4638-.868-.4126-1.92.1331-2.738l2.0886-3.134c1.8274-2.732 2.8015-5.947 2.7966-9.234v-2.152c0-1.473 1.1939-2.667 2.6673-2.667h29.3335c1.4722 0 2.666 1.194 2.666 2.667-.0122 4.417 1.7432 8.656 4.8752 11.771l2.344 2.343c.762.763.99 1.91.577 2.906-.412.996-1.384 1.646-2.463 1.646zm-37.7221-5.333h31.5576c-2.3816-3.1-3.8806-6.786-4.342-10.666h-24.1602c-.0867 3.758-1.1389 7.431-3.0554 10.666z"/><path d="m157.333 15.9998h-154.66576c-1.47339 0-2.66724-1.1939-2.66724-2.6661 0-1.4733 1.19385-2.6672 2.66724-2.6672h154.66576c1.473 0 2.667 1.1939 2.667 2.6672 0 1.4722-1.194 2.6661-2.667 2.6661z"/><path d="m152 160h-18.666c-1.474 0-2.667-1.194-2.667-2.667v-1.333c0-6.627 5.372-12 12-12 6.627 0 12 5.373 12 12v1.333c0 1.473-1.194 2.667-2.667 2.667zm-15.867-5.333h13.067c-.631-3.107-3.363-5.341-6.533-5.341-3.171 0-5.903 2.234-6.534 5.341z"/><path d="m133.334 154.667c-5.891 0-10.667-4.776-10.667-10.667v-13.333c0-1.473 1.194-2.667 2.666-2.667 1.474 0 2.667 1.194 2.667 2.667v13.333c0 2.946 2.388 5.333 5.334 5.333 1.472 0 2.666 1.194 2.666 2.667s-1.194 2.667-2.666 2.667z"/></g><path d="m97.1893 48.8542 6.1647 12.1499-4.6952 19.8914-11.1464-9.1034 1.9712-14.5871z" fill="#fff"/><path d="m80.7385 44.7684c-1.2903 0-2.3296-1.0394-2.3296-2.3296v-18.3144c0-1.2903 1.0393-2.3297 2.3296-2.3297 1.2902 0 2.3296 1.0394 2.3296 2.3297v18.3144c-.0358 1.2902-1.0752 2.3296-2.3296 2.3296z" fill="#428dff"/><path d="m84.4661 44.7684h-7.2039c-1.2903-.0359-2.2938-1.0752-2.2938-2.3655.0358-1.2544 1.0394-2.2579 2.2938-2.2938h7.2039c1.2902.0359 2.2937 1.0752 2.2937 2.3655-.0358 1.2902-1.0752 2.2938-2.2937 2.2938z" fill="#428dff"/><path d="m97.1893 48.8542 7.6337-7.2039c-5.8417-5.842-13.9416-9.4619-22.83-9.4619-17.8485 0-32.328 14.4795-32.328 32.328s14.4795 32.328 32.328 32.328c6.6663 0 12.5083 2.4371 17.6335-1.0035l6.3795.896-.179-10.3937-18.3146-14.5153 3.9425-18.5295z" fill="#fff"/><path d="m81.993 99.9984c-19.5688 0-35.482-15.9132-35.482-35.482s15.9132-35.4819 35.482-35.4819c9.4618 0 18.386 3.6915 25.088 10.3937l2.294 2.2938-10.0353 9.426-4.3367-4.6234 5.125-4.8385c-5.125-4.1216-11.4687-6.3437-18.1709-6.3437-16.0564 0-29.1382 13.0817-29.1382 29.1382 0 16.0564 13.0818 29.1382 29.1382 29.1382" fill="#428dff"/><path d="m99.8057 81.7556-4.5518-4.4083c3.369-3.4765 5.1971-8.0283 5.1971-12.8309 0-5.0176-1.9714-9.7485-5.5913-13.2251l-2.3655-2.3296 2.5447-2.4013 2.1863 2.2938 2.0787-2.1504c4.8381 4.6951 7.5261 11.0388 7.5261 17.7768-.035 6.4871-2.508 12.6158-7.0243 17.275z" fill="#a4c2f7"/><path d="m74.7174 64.5164c0-4.0141 3.2614-7.3114 7.3114-7.3114 4.0141 0 7.3114 3.2615 7.3114 7.3114 0 4.0142-3.2614 7.3115-7.3114 7.3115-4.05-.0359-7.3114-3.2973-7.3114-7.3115z" fill="#eff4ee"/><path d="m81.9931 60.3948c-2.2579 0-4.1216 1.8637-4.1216 4.1217 0 2.2579 1.8637 4.1216 4.1216 4.1216s4.1216-1.8637 4.1216-4.1216c0-2.2938-1.8278-4.1217-4.1216-4.1217zm0 14.587c-5.7703 0-10.4654-4.695-10.4654-10.4653s4.6951-10.4654 10.4654-10.4654 10.4654 4.6951 10.4654 10.4654-4.6951 10.4653-10.4654 10.4653zm22.8659-33.3315-18.4576 17.06z" fill="#428dff"/><path d="m102.709 39.3206 4.301 4.6593-18.4582 17.06-4.3009-4.6593z" fill="#428dff"/><path d="m85.4338 70.9319 13.2609 9.9636 7.1683 5.376v13.691l-14.3722-.6809" fill="#fff"/><path d="m109.017 99.9983h-27.5974v-6.3437h21.2534v-5.7703l-19.1388-14.4078 3.7991-5.0535 21.6837 16.3074z" fill="#428dff"/><path d="m69.6998 51.1838c-1.2903 0-2.3297-1.0394-2.3297-2.3296v-24.7299c.0359-1.2902 1.0753-2.2937 2.3655-2.2937 1.2544.0358 2.2579 1.0393 2.2938 2.2937v24.7299c0 1.2902-1.0394 2.3296-2.3296 2.3296z" fill="#428dff"/></svg>

<svg width="160" height="160" viewBox="0 0 160 160" fill="none" xmlns="http://www.w3.org/2000/svg">
<path d="M157.333 8.00049V13.3337H2.66724V8.00049C2.67578 5.05859 5.05859 2.67578 8.00049 2.66724H152C154.941 2.67578 157.324 5.05859 157.333 8.00049Z" fill="#A4C2F7"/>
<path d="M149.333 8.00049V13.3337H2.66724V8.00049C2.67578 5.05859 5.05859 2.67578 8.00049 2.66724H144C146.942 2.67578 149.325 5.05859 149.333 8.00049Z" fill="#E3E7F2"/>
<path d="M149.333 13.3337H2.66724V114.561H157.333V13.3337H149.333Z" fill="url(#paint0_linear)"/>
<path d="M157.333 114.561V125.333C157.324 128.275 154.941 130.658 152 130.667H8.00049C5.05859 130.658 2.67578 128.275 2.66724 125.333V114.561H157.333Z" fill="#A4C2F7"/>
<path d="M149.333 114.561V125.333C149.325 128.275 146.942 130.658 144 130.667H8.00049C5.05859 130.658 2.67578 128.275 2.66724 125.333V114.561H149.333Z" fill="#E3E7F2"/>
<path d="M114.667 157.333H45.3333V152.085C45.3333 149.122 47.7356 146.72 50.6982 146.72H109.333C112.279 146.72 114.667 149.108 114.667 152.053V157.333Z" fill="#E3E7F2"/>
<path d="M93.3337 130.667H64.0002V132.819C64.0002 136.632 62.8723 140.36 60.7568 143.534L58.667 146.666H101.333L98.9893 144.323C95.3674 140.701 93.3337 135.789 93.3337 130.667Z" fill="#A4C2F7"/>
<path d="M152 160H133.334C131.86 160 130.667 158.806 130.667 157.333V156C130.667 149.373 136.039 144 142.667 144C149.294 144 154.667 149.373 154.667 156V157.333C154.667 158.806 153.473 160 152 160Z" fill="#A4C2F7"/>
<path d="M8.00049 130.667H15.9998C13.0579 130.658 10.675 128.275 10.6665 125.333V8.00049C10.675 5.05859 13.0579 2.67578 15.9998 2.66724H8.00049C5.05859 2.67578 2.67578 5.05859 2.66724 8.00049V125.333C2.67578 128.275 5.05859 130.658 8.00049 130.667Z" fill="white"/>
<path d="M60.7568 143.534L58.667 146.666H66.6663L68.7573 143.534C70.8716 140.36 72.0007 136.632 71.9995 132.819V130.667H64.0002V132.819C64.0002 136.632 62.8723 140.36 60.7568 143.534Z" fill="white"/>
<path d="M45.3333 152.085V157.333H53.3337V152.085C53.3337 149.122 55.7361 146.72 58.6987 146.72H50.6982C47.7356 146.72 45.3333 149.122 45.3333 152.085Z" fill="white"/>
<path d="M152 133.334H8.00049C3.58154 133.334 0 129.752 0 125.333V114.561C0 113.087 1.19385 111.893 2.66724 111.893H157.333C158.806 111.893 160 113.087 160 114.561V125.333C160 129.752 156.418 133.334 152 133.334ZM5.33325 117.227V125.333C5.33325 126.807 6.5271 128 8.00049 128H152C153.473 128 154.667 126.807 154.667 125.333V117.227H5.33325Z" fill="#428DFF"/>
<path d="M114.667 160H45.3333C43.8611 160 42.6672 158.806 42.6672 157.333V152.085C42.6709 147.651 46.2646 144.058 50.6982 144.053H109.333C113.748 144.062 117.324 147.639 117.333 152.053V157.333C117.333 158.806 116.139 160 114.667 160ZM48.0005 154.667H112V152.058C112 150.586 110.806 149.392 109.333 149.392H50.6982C49.2114 149.393 48.0042 150.598 48.0005 152.085V154.667Z" fill="#428DFF"/>
<path d="M5.33325 8.00049V114.561H0V8.00049H5.33325Z" fill="white"/>
<path d="M2.66724 21.333C4.1394 21.333 5.33325 20.1392 5.33325 18.667V8.00049H0V18.667C0 20.1392 1.19385 21.333 2.66724 21.333Z" fill="#428DFF"/>
<path d="M0 114.561H5.33325V40C5.33325 38.5278 4.1394 37.3328 2.66724 37.3328C1.19385 37.3328 0 38.5278 0 40V114.561Z" fill="#428DFF"/>
<path d="M5.33325 29.3335C5.32349 28.6279 5.04639 27.9517 4.56055 27.4402L4.16016 27.1204C4.01123 27.019 3.8501 26.9385 3.68042 26.8799C3.52905 26.803 3.3667 26.7493 3.19946 26.72C3.02368 26.6907 2.84546 26.6724 2.66724 26.6663C1.96045 26.6772 1.28418 26.9531 0.773928 27.4402C0.532228 27.6953 0.341799 27.9932 0.213625 28.3203C-0.189207 29.3152 0.0305195 30.4529 0.773928 31.2268C1.02783 31.4673 1.32691 31.6577 1.65283 31.7871C1.97388 31.9238 2.31812 31.9958 2.66724 31.9995C3.3728 31.9897 4.04907 31.7139 4.56055 31.2268C5.04639 30.7153 5.32349 30.0391 5.33325 29.3335Z" fill="#428DFF"/>
<path d="M157.333 117.227H2.66724C1.19385 117.227 0 116.033 0 114.561C0 113.087 1.19385 111.893 2.66724 111.893H154.667V8.00049C154.667 6.5271 153.473 5.33325 152 5.33325H8.00049C6.5271 5.33325 5.33325 6.5271 5.33325 8.00049C5.33325 9.47266 4.1394 10.6665 2.66724 10.6665C1.19385 10.6665 0 9.47266 0 8.00049C0 3.58154 3.58154 0 8.00049 0H152C156.418 0 160 3.58154 160 8.00049V114.561C160 116.033 158.806 117.227 157.333 117.227Z" fill="#428DFF"/>
<path d="M101.333 149.333H58.667C57.6831 149.333 56.7786 148.792 56.3147 147.925C55.8509 147.057 55.9021 146.005 56.4478 145.187L58.5364 142.053C60.3638 139.321 61.3379 136.106 61.333 132.819V130.667C61.333 129.194 62.5269 128 64.0003 128H93.3338C94.806 128 95.9998 129.194 95.9998 130.667C95.9876 135.084 97.743 139.323 100.875 142.438L103.219 144.781C103.981 145.544 104.209 146.691 103.796 147.687C103.384 148.683 102.412 149.333 101.333 149.333ZM63.6109 144H95.1685C92.7869 140.9 91.2879 137.214 90.8265 133.334H66.6663C66.5796 137.092 65.5274 140.765 63.6109 144Z" fill="#428DFF"/>
<path d="M157.333 15.9998H2.66724C1.19385 15.9998 0 14.8059 0 13.3337C0 11.8604 1.19385 10.6665 2.66724 10.6665H157.333C158.806 10.6665 160 11.8604 160 13.3337C160 14.8059 158.806 15.9998 157.333 15.9998Z" fill="#428DFF"/>
<path d="M152 160H133.334C131.86 160 130.667 158.806 130.667 157.333V156C130.667 149.373 136.039 144 142.667 144C149.294 144 154.667 149.373 154.667 156V157.333C154.667 158.806 153.473 160 152 160ZM136.133 154.667H149.2C148.569 151.56 145.837 149.326 142.667 149.326C139.496 149.326 136.764 151.56 136.133 154.667Z" fill="#428DFF"/>
<path d="M133.334 154.667C127.443 154.667 122.667 149.891 122.667 144V130.667C122.667 129.194 123.861 128 125.333 128C126.807 128 128 129.194 128 130.667V144C128 146.946 130.388 149.333 133.334 149.333C134.806 149.333 136 150.527 136 152C136 153.473 134.806 154.667 133.334 154.667Z" fill="#428DFF"/>
<path d="M97.1893 48.8542L103.354 61.0041L98.6588 80.8955L87.5124 71.7921L89.4836 57.205L97.1893 48.8542Z" fill="white"/>
<path d="M80.7385 44.7684C79.4482 44.7684 78.4089 43.729 78.4089 42.4388V24.1244C78.4089 22.8341 79.4482 21.7947 80.7385 21.7947C82.0287 21.7947 83.0681 22.8341 83.0681 24.1244V42.4388C83.0323 43.729 81.9929 44.7684 80.7385 44.7684Z" fill="#428DFF"/>
<path d="M84.4661 44.7684H77.2622C75.9719 44.7325 74.9684 43.6932 74.9684 42.4029C75.0042 41.1485 76.0078 40.145 77.2622 40.1091H84.4661C85.7563 40.145 86.7598 41.1843 86.7598 42.4746C86.724 43.7648 85.6846 44.7684 84.4661 44.7684Z" fill="#428DFF"/>
<path d="M97.1893 48.8542L104.823 41.6503C98.9813 35.8083 90.8814 32.1884 81.993 32.1884C64.1445 32.1884 49.665 46.6679 49.665 64.5164C49.665 82.3649 64.1445 96.8444 81.993 96.8444C88.6593 96.8444 94.5013 99.2815 99.6265 95.8409L106.006 96.7369L105.827 86.3432L87.5124 71.8279L91.4549 53.2984L97.1893 48.8542Z" fill="white"/>
<path d="M81.993 99.9984C62.4242 99.9984 46.511 84.0852 46.511 64.5164C46.511 44.9476 62.4242 29.0345 81.993 29.0345C91.4548 29.0345 100.379 32.726 107.081 39.4282L109.375 41.722L99.3397 51.148L95.003 46.5246L100.128 41.6861C95.003 37.5645 88.6593 35.3424 81.9571 35.3424C65.9007 35.3424 52.8189 48.4241 52.8189 64.4806C52.8189 80.537 65.9007 93.6188 81.9571 93.6188" fill="#428DFF"/>
<path d="M99.8057 81.7556L95.2539 77.3473C98.6229 73.8708 100.451 69.319 100.451 64.5164C100.451 59.4988 98.4796 54.7679 94.8597 51.2913L92.4942 48.9617L95.0389 46.5604L97.2252 48.8542L99.3039 46.7038C104.142 51.3989 106.83 57.7426 106.83 64.4806C106.795 70.9677 104.322 77.0964 99.8057 81.7556Z" fill="#A4C2F7"/>
<path d="M74.7174 64.5164C74.7174 60.5023 77.9788 57.205 82.0288 57.205C86.0429 57.205 89.3402 60.4665 89.3402 64.5164C89.3402 68.5306 86.0788 71.8279 82.0288 71.8279C77.9788 71.792 74.7174 68.5306 74.7174 64.5164Z" fill="#EFF4EE"/>
<path d="M81.9931 60.3948C79.7352 60.3948 77.8715 62.2585 77.8715 64.5165C77.8715 66.7744 79.7352 68.6381 81.9931 68.6381C84.251 68.6381 86.1147 66.7744 86.1147 64.5165C86.1147 62.2227 84.2869 60.3948 81.9931 60.3948ZM81.9931 74.9818C76.2228 74.9818 71.5277 70.2868 71.5277 64.5165C71.5277 58.7462 76.2228 54.0511 81.9931 54.0511C87.7634 54.0511 92.4585 58.7462 92.4585 64.5165C92.4585 70.2868 87.7634 74.9818 81.9931 74.9818ZM104.859 41.6503L86.4014 58.7103L104.859 41.6503Z" fill="#428DFF"/>
<path d="M102.709 39.3206L107.01 43.9799L88.5518 61.0399L84.2509 56.3806L102.709 39.3206Z" fill="#428DFF"/>
<path d="M85.4338 70.9319L98.6947 80.8955L105.863 86.2715V99.9625L91.4908 99.2816" fill="white"/>
<path d="M109.017 99.9983H81.4196V93.6546H102.673V87.8843L83.5342 73.4765L87.3333 68.423L109.017 84.7304V99.9983Z" fill="#428DFF"/>
<path d="M69.6998 51.1838C68.4095 51.1838 67.3701 50.1444 67.3701 48.8542V24.1243C67.406 22.8341 68.4454 21.8306 69.7356 21.8306C70.99 21.8664 71.9935 22.8699 72.0294 24.1243V48.8542C72.0294 50.1444 70.99 51.1838 69.6998 51.1838Z" fill="#428DFF"/>
<defs>
<linearGradient id="paint0_linear" x1="16.0271" y1="-0.0262757" x2="82.1728" y2="154.393" gradientUnits="userSpaceOnUse">
<stop stop-color="#D3DFF2"/>
<stop offset="0.172" stop-color="#D3DFF2"/>
<stop offset="0.2" stop-color="#DAE2F2"/>
<stop offset="0.201" stop-color="#F6EFF2"/>
<stop offset="0.202" stop-color="#FDF2F2"/>
<stop offset="0.205" stop-color="white"/>
<stop offset="0.2519" stop-color="white"/>
<stop offset="0.252" stop-color="#FFF3F2"/>
<stop offset="0.26" stop-color="#D3DFF2"/>
<stop offset="0.397" stop-color="#D3DFF2"/>
<stop offset="0.42" stop-color="#DAE2F2"/>
<stop offset="0.421" stop-color="#F6EFF2"/>
<stop offset="0.422" stop-color="#FDF2F2"/>
<stop offset="0.425" stop-color="white"/>
<stop offset="0.46875" stop-color="white"/>
<stop offset="0.489" stop-color="white"/>
<stop offset="0.5" stop-color="#D5E0F2"/>
<stop offset="0.501" stop-color="#D3DFF2"/>
<stop offset="0.706" stop-color="#D3DFF2"/>
<stop offset="0.74" stop-color="#D3DFF2"/>
<stop offset="0.741" stop-color="white"/>
<stop offset="0.835" stop-color="white"/>
<stop offset="0.85" stop-color="white"/>
<stop offset="0.851" stop-color="#D3DFF2"/>
</linearGradient>
</defs>
</svg>
